svgs/sharp-solid/file-gif.svg

<svg xmlns="http://www.w3.org/2000/svg" viewBox="0 0 512 512"><!--! Font Awesome Pro 6.5.2 by @fontawesome - https://fontawesome.com License - https://fontawesome.com/license (Commercial License) Copyright 2024 Fonticons, Inc. --><path d="M0 0H224V160H384V304H176V512H0V0zM384 128H256V0L384 128zM224 392c0-22.1 17.9-40 40-40h16c22.1 0 40 17.9 40 40v16H288V392c0-4.4-3.6-8-8-8H264c-4.4 0-8 3.6-8 8v80c0 4.4 3.6 8 8 8h16c4.4 0 8-3.6 8-8v-8H272V432h16 16 16v16 24c0 22.1-17.9 40-40 40H264c-22.1 0-40-17.9-40-40V392zm160-24V496v16H352V496 368 352h32v16zm48-16h48 16v32H480 448v32h32 16v32H480 448v48 16H416V496 432 368 352h16z"/></svg>

<svg xmlns="http://www.w3.org/2000/svg" viewBox="0 0 512 512"><!--! Font Awesome Pro 6.6.0 by @fontawesome - https://fontawesome.com License - https://fontawesome.com/license (Commercial License) Copyright 2024 Fonticons, Inc. --><path d="M0 0L224 0l0 160 160 0 0 144-208 0 0 208L0 512 0 0zM384 128l-128 0L256 0 384 128zM224 392c0-22.1 17.9-40 40-40l16 0c22.1 0 40 17.9 40 40l0 16-32 0 0-16c0-4.4-3.6-8-8-8l-16 0c-4.4 0-8 3.6-8 8l0 80c0 4.4 3.6 8 8 8l16 0c4.4 0 8-3.6 8-8l0-8-16 0 0-32 16 0 16 0 16 0 0 16 0 24c0 22.1-17.9 40-40 40l-16 0c-22.1 0-40-17.9-40-40l0-80zm160-24l0 128 0 16-32 0 0-16 0-128 0-16 32 0 0 16zm48-16l48 0 16 0 0 32-16 0-32 0 0 32 32 0 16 0 0 32-16 0-32 0 0 48 0 16-32 0 0-16 0-64 0-64 0-16 16 0z"/></svg>
